X:432
T: Als ich bei meinen Schafen wacht (5-28), S. 48
N: P0702
O: Lothringen
S: MERKELBACH-PINCK, Angelika: Verklingende Weisen, Bd 5, Kassel 1962]
R: geistliches, religiöses Lied]
M: 4/4
L: 1/8
K: Bb
d2 | _d2=d2_c2A2 | _c2_d2=d2
=e2 | d2_d2_c2A2 | _c2_d2=d2
_d=d | =ed_d2_c4 | d2_d2_c2B2 | _c4z4
d4=e4 | _g8 | =e2d2_g2e2 | g4_g4
g4=e2d2 | _d4=e4 | d2_d2_c2

